plugin/icons/svg/tool panel/panel-pen-vector/icon_pen-vector-color.svg

<svg width="18" height="24" viewBox="0 0 18 24" fill="none" xmlns="http://www.w3.org/2000/svg">
<rect width="18" height="24" fill="#D1D1D1"/>
<path fill-rule="evenodd" clip-rule="evenodd" d="M11.1924 11.6014L7.65686 8.06586L4.82843 10.8943C4.43791 11.2848 4.43791 11.918 4.82843 12.3085L6.94975 14.4298C7.34028 14.8203 7.97344 14.8203 8.36397 14.4298L11.1924 11.6014ZM7.65686 6.65164L4.12133 10.1872C3.34028 10.9682 3.34028 12.2346 4.12133 13.0156L6.24265 15.1369C7.0237 15.918 8.29003 15.918 9.07107 15.1369L12.6066 11.6014L7.65686 6.65164Z" fill="#252525"/>
<path d="M11.1924 11.6014L10.9924 13.8017C10.9099 14.7086 11.624 15.4905 12.5346 15.4905C13.4955 15.4905 14.2244 14.6245 14.0604 13.6777L14.0364 13.5391C13.6822 11.4936 12.0513 9.90868 9.99646 9.61316L9.07108 9.48007L11.1924 11.6014Z" fill="#252525"/>
<rect x="5.53552" y="7.71232" width="4.5" height="0.5" transform="rotate(45 5.53552 7.71232)" stroke="#252525" stroke-width="0.5"/>
</svg>

<?xml version="1.0" encoding="utf-8"?>
<!-- Generator: Adobe Illustrator 25.2.0, SVG Export Plug-In . SVG Version: 6.00 Build 0)  -->
<svg version="1.1" id="Layer_1" xmlns="http://www.w3.org/2000/svg" xmlns:xlink="http://www.w3.org/1999/xlink" x="0px" y="0px"
	 viewBox="0 0 18 24" style="enable-background:new 0 0 18 24;" xml:space="preserve">
<style type="text/css">
	.st0{display:none;fill:#D1D1D1;}
	.st1{fill-rule:evenodd;clip-rule:evenodd;fill:#252525;}
	.st2{fill:#252525;}
	.st3{fill:none;stroke:#252525;stroke-width:0.5;}
</style>
<rect class="st0" width="18" height="24"/>
<path class="st1" d="M11.2,11.6L7.7,8.1l-2.8,2.8c-0.4,0.4-0.4,1,0,1.4l2.1,2.1c0.4,0.4,1,0.4,1.4,0L11.2,11.6z M7.7,6.7l-3.5,3.5
	c-0.8,0.8-0.8,2,0,2.8l2.1,2.1c0.8,0.8,2,0.8,2.8,0l3.5-3.5L7.7,6.7z"/>
<path class="st2" d="M11.2,11.6L11,13.8c-0.1,0.9,0.6,1.7,1.5,1.7c1,0,1.7-0.9,1.5-1.8l0-0.1c-0.4-2-2-3.6-4-3.9L9.1,9.5L11.2,11.6z
	"/>
<rect x="6.7" y="7.2" transform="matrix(0.7071 -0.7071 0.7071 0.7071 -4.6679 7.6909)" class="st3" width="0.5" height="4.5"/>
</svg>
